X:1
T:James Gibb editions
T:Wohl de, der nicht wandelt, SWV 290 - Schütz
T:#
%%score [ 1 2 ] 3
L:1/8
Q:1/4=200
M:3/2
K:F
V:1 treble nm="Soprano"
V:2 treble nm="Alto"
V:3 bass nm="Continuo"
V:1
"^Wohl dem, der nicht wandelt, SWV 290""^Heinrich Schütz\n(1585-1672)""^Psalm 1: 1-3" z12 | z12 | %2
w: ||
 z12 | z12 | z12 | d4 A4 B4 |[M:3/2] c4 G4 A4 | B4 F4 G4 | A8 G4 | F4 D8 | E8 z4 | z4 z4 d4 | %12
w: |||Wohl dem, wohl|dem, der nicht|wan- delt im|Rath der|Gott- lo-|sen,|noch|
 d4 d4 ^c4 | (d2 _e2 d2 c2 B4) | A4 A8 | G8 c4 | c4 c4 =B4 | (c2 d2 c2 _B2 A4) | G4 G8 | F8 z4 | %20
w: tritt auf den|Weg * * * *|der Sün-|der, noch|tritt auf den|Weg * * * *|der Sün-|der,|
 z4 z4 A4 | ^F12 | ^F8 z4 | z4 G4 D4 | (F2 E2 D2 E2 F2 G2 | A2 G2 F2 G2 A2 B2 | c6 BA G4) | B4 A8 | %28
w: noch|si-|tzet|da die|Spöt\- * * * * *|||ter si-|
 A8 z4 | d4 _e4 d4 | c4 d4 c4 | B4 c4 B4 | A12 | z12 | z12 | z12 | z12 | d4 _e4 d4 | c4 d4 c4 | %39
w: tzen,|son- dern hat|Lust zum Ge-|se- tze des|Herrn,|||||son- dern hat|Lust zum Ge-|
 B4 c4 B4 | A8 A4 | B4 A4 B4 | c4 B4 c4 | d8 _e4 | B4 A8 | B8 z4 | z4 z4 G4 | A4 G4 A4 | %48
w: se- tze des|Herrn, und|re- det von|sei- nem Ge-|se- tze|Tag und|Nacht,|und|re- det von|
 =B4 A4 B4 | c8 z4 | z4 z4 A4 | B4 A4 B4 | c4 B4 c4 | d8 B4 | c4 A8 | G12 || %56
w: sei- nem Ge-|setz,|und|re- det von|sei- nem Ge-|se- tze|Tag und|Nacht.|
[M:2/2][Q:1/4=150] z4 A4 | A8 | z2 F4 G2 |[M:2/2][Q:1/4=150][Q:1/4=150][Q:1/4=150] (ABGA FGEF | %60
w: Der|ist|wie ein|Baum * * * * * * *|
 D2) E2 F4 | E4 E2 F2 | (DCDE FEFD | EF) (GF) E4 | D4 z2 A2 | A2 FA B2 AB | G3 G F4 | z4 z2 B2 | %68
w: * ge- pflan-|zet an den|Was\- * * * * * * *|* * ser\- * bä-|chen, der|sei- ne Frucht brin- get zu|sei- ner Zeit,|der|
 B2 Ac d4- | d2 _ef c3 B | B8 | z8 | z FGA (BAAG) | A2 z A (cB) (cG) | A4 z EFG | (AGGF) G2 z G | %76
w: sei- ne Frucht brin\-|* get zu sei- ner|Zeit,||und sei- ne Blät\- * * *|ter ver- wel\- * ken *|nicht, und sei- ne|Blät\- * * * ter ver-|
 (BA) (BG) A2 AB | (cBBA) B2 z G | (AGAF GFGE | FEFD E3) D | D4 z4 ||[M:3/2] x12 | %82
w: wel\- * ken * nicht, sei- ne|Blät\- * * * ter ver-|wel\- * * * * * * *|* * * * * ken|nicht,||
[M:3/2][Q:1/4=240] z12 | z12 | z12 | z12 | F4 G4 A4 | B4 B4 A2 A2 | G12 | F8 z4 | %90
w: ||||und was er|ma- chet, das ge-|räth|wohl,|
[Q:1/4=240][Q:1/4=240][Q:1/4=240] z4 z4 c2 c2 | (c4 =B2 A2 B4) | c2 G2 A4 B4 | c4 c4 z4 | %94
w: das ge-|räth * * *|wohl, und was er|ma- chet,|
 z4 z4 c2 c2 | =B12 | A8 A2 A2 | G12 | F8 F2 F2 | E12 | D2 F2 G4 A4 | B4 B4 z4 | z4 z4 G2 G2 | %103
w: das ge-|räth|wohl, das ge-|räth|wohl, das ge-|räth|wohl, und was er|ma- chet,|das ge-|
 (G4 ^F2 E2 F4) | G4 B2 B2 A4 | G4 G2 G2 ^F4 | G4 B2 B2 A4- | A4 G8 | z12 | z12 | z12 | z12 | %112
w: räth * * *|wohl, das re- räth|wohl, das ge- räth|wohl, das ge- räth|* wohl.|||||
 F4 G4 A4 | B8 A2 A2 | G12 | F8 z4 | z4 z4 c2 c2 | (c4 =B2 A2 B4) | c2 G2 A4 B4 | c8 z4 | %120
w: Al- le- lu-|ja, Al- le-|lu-|ja,|Al- le-|lu\- * * *|ja, Al- le- lu-|ja,|
 z4 z4 c2 c2 | =B12 | A8 A2 A2 | G12 | F8 F2 F2 | E12 | D2 F2 G4 A4 | B8 z4 | z4 z4 G2 G2 | %129
w: Al- le-|lu-|ja, Al- le-|lu-|ja, Al- le-|lu-|ja, Al- le- lu-|ja,|Al- le-|
 (G4 ^F2 E2 F4) | G4 B2 B2 A4 | G4 G2[Q:1/4=238] G2[Q:1/4=232] ^F4 || %132
w: lu\- * * *|ja, Al- le- lu-|ja, Al- le- lu-|
[M:2/2][Q:1/4=224] G4[Q:1/4=219] B2[Q:1/4=215] B2 |[Q:1/4=206] A8 |[Q:1/4=200] G16 |] %135
w: ja, Al- le-|lu-|ja.|
V:2
 G4 D4 E4 | F4 C4 D4 | _E4 B,4 C4 | D8 C4 | B,4 G,8 | A,12 |[M:3/2] z12 | z12 | z12 | z4 z4 D4 | %10
w: Wohl dem, wohl|dem, der nicht|wan- delt im|Rath der|Gott- lo-|sen,||||noch|
 D4 D4 ^C4 | (D2 _E2 D2 C2 B,4) | B,4 A,8 | G,8 G4 | G4 G4 ^F4 | (G2 A2 G2 F2 _E4) | D4 D8 | %17
w: tritt auf den|Weg * * * *|der Sün-|der, noch|tritt auf den|Weg * * * *|der Sün-|
 C8 z4 | z4 z4 C4 | A,12 | A,12 | z12 | z4 D4 A,4 | (B,2 A,2 G,2 A,2 B,2 C2 | D2 C2 B,2 C2 D2 E2 | %25
w: der,|noch|si-|tzet||da die|Spöt\- * * * * *||
 F2 E2 D2 E2 F2 G2 | A6 GF E4) | G4 ^F8 | ^F8 z4 | z12 | z12 | z12 | z12 | F4 G4 F4 | _E4 F4 E4 | %35
w: |* * * `|ter si-|tzen,|||||son- dern hat|Lust zum Ge-|
 D4 _E4 D4 | C8 C4 | D4 C4 D4 | E4 D4 E4 | ^F8 G4 | G4 ^F8 | G12 | z12 | z12 | z4 z4 C4 | %45
w: se- tze des|Herrn, und|re- det von|sei- nem Ge-|se- tze|Tag und|Nacht,|||und|
 D4 C4 D4 | E4 D4 E4 | F8 z4 | z4 z4 D4 | E4 D4 E4 | F4 E4 F4 | G8 G4 | A4 G4 A4 | B8 G4 | G4 ^F8 | %55
w: re- det von|sei- nem Ge-|setz,|und|re- det von|sei- nem Ge-|setz, von|sei- nem Ge-|se- tze|Tag und|
 G12 ||[M:2/2] z4 F4 | F8 | z2 D4 E2 |[M:2/2] (FGEF DE ^CD/E/ | F2) E2 D4 | ^C4 =C2 D2 | %62
w: Nacht.|Der|ist|wie ein|Baum * * * * * * * *|* ge- pflan-|zet an den|
 (B,A,B,G, A,G,A,=B, | ^C2) D4 C2 | D8 | z8 | z4 z2 C2 | C2 A,C D2 _EF | C3 C B,D (CB, | %69
w: Was\- * * * * * * *|* ser- bä-|chen,||der|sei- ne Frucht brin- get zu|sei- ner Zeit, zu sei\- *|
 A,2 B,4) A,2 | B,4 z B,CD | (_EDDC) D2 z D | (FD) (EF) G4 | z8 | z A,B,C (DCCB,) | %75
w: * * ner|Zeit, und sei- ne|Blät\- * * * ter ver-|wel\- * ken * nicht,||und sei- ne Blät\- * * *|
 C2 z C (_ED) (EC) | D2 DE (FEED) | E2 z ^F (G=FGE | FEFD EDEC | D6) ^C2 | D4 z4 ||[M:3/2] x12 | %82
w: ter ver- wel\- * ken *|nicht, sei- ne Blät\- * * *|ter ver wel\- * * *||* ken|nicht,||
[M:3/2] B,4 C4 D4 | _E4 E4 D2 D2 | C12 | B,12 | z12 | z4 z4 F2 F2 | (F4 E2 D2 E4) | F2 C2 D4 E4 | %90
w: und was er|ma- chet, das ge-|räth|wohl,||das ge-|räth * * *|wohl, und was er|
 F4 F4 _E2 E2 | D12 | C2 E2 F4 G4 | A4 A4 z4 | z4 z4 A2 A2 | (A4 ^G2 ^F2 G4) | A4 E4 =F4 | %97
w: ma- chet, das ge-|räth|wohl, und was er|ma- chet,|das ge-|räth * * *|wohl, das ge-|
 (F4 E2 D2 E4) | F4 C4 D4 | (D4 ^C2 =B,2 C4) | D2 A,2 _B,4 =C4 | D4 D4 z4 | z4 z4 B,2 B,2 | A,12 | %104
w: räth * * *|wohl, das ge-|räth * * *|wohl, und was er|ma- chet,|das ge-|räth|
 G,4 G2 G2 ^F4 | G4 B,2 B,2 A,4 | G,4 G2 G2 (G2 ^FE | ^F4) G8 | B,4 C4 D4 | _E8 D2 D2 | C12 | %111
w: wohl, das re- räth|wohl, das ge- räth|wohl, das ge- räth * *|* wohl.|Al- le- lu-|ja, Al- le-|lu-|
 B,12 | z12 | z4 z4 F2 F2 | (F4 E2 D2 E4) | F2 C2 D4 E4 | F8 _E2 E2 | D12 | C2 E2 F4 G4 | A8 z4 | %120
w: ja.||Al- le-|lu\- * * *|ja, Al- le- lu-|ja, Al- le-|lu-|ja, Al- le- lu-|ja,|
 z4 z4 A2 A2 | (A4 ^G2 ^F2 G4) | A4 E4 F4 | (F4 E2 D2 E4) | F4 C4 D4 | (D4 ^C2 =B,2 C4) | %126
w: Al- le-|lu\- * * *|ja, Al- le-|lu\- * * *|ja, Al- le-|lu\- * * *|
 D2 A,2 B,4 C4 | D8 z4 | z4 z4 B,2 B,2 | A,12 | G,4 G2 G2 ^F4 | G4 B,2 B,2 A,4 || %132
w: ja, Al- le- lu-|ja,|Al- le-|lu-|ja, Al- le- lu-|ja, Al- le- lu-|
[M:2/2] G,4 G2 G2 | (G2 ^FE F4) | G16 |] %135
w: ja, Al- le-|lu\- * * *|ja.|
V:3
 G,8- G,4 | D,4 F,8 | C,4 _E,8 | B,,8 C,4 | D,4 _E,8 | D,8- D,4 |[M:3/2] A,4 C8 | G,4 B,8 | %8
w: * 6|* 5~~~~~~~6|* 5~~~~~~6||6 *|* 6|* 5~~~~~~~~6|* 5~~~~~~6|
 F,8 G,4 | A,4 B,8 | A,8- A,4 | D,8 B,4- | B,4 A,8 | G,12 | C,4 D,8 | G,8 C,4 | F,4 G,8 | C,8 D,4 | %18
w: |6 *|4 *||* 4||* 4||* 4||
 B,,4 C,8 | F,,12 | F,,8 F,4 | D,12 | D,12 | G,4 G,6 F,E, | D,12 | D,4 D,6 C,B,, | A,,6 B,,2 C,4 | %27
w: |||||||||
 G,,4 D,8 | D,8 z4 | B,12 | A,12 | G,12 | F,12 | D,12 | C,12 | B,,12 | F,8 F,4 | B,,12 | C,12 | %39
w: ||||||||||||
 D,8 _E,4 | C,4 D,8 | G,12 | F,12 | B,8 _E,4- | E,4 F,8 | B,,12 | C,12 | F,12 | G,12 | C,12 | %50
w: 6 *|||||||||||
 D,12 | G,12 | F,12 | B,,8 _E,4 | C,4 D,8 | G,,12 ||[M:2/2] z4 D,4 | D,8 | z2 D,4 C,2 | %59
w: |||||||||
[M:2/2] F,,4- F,,2 A,,2 | D,2 ^C,2 D,4 | A,,4 A,,2 D,2 | G,,4 D,4 | A,2 G,2 A,4 | D,8 | D,4 B,,4 | %66
w: * 6 *||||* * 4|||
 C,4 F,,4- | F,,4 B,,4 | _E,2 F,2 B,,4 | F,8 | B,,4 B,,4 | C,4 G,4 | A,4 G,4 | D,4 E,4 | F,4 B,,4 | %75
w: |||3~~~~~~4~~~~~~~~~~~~~~3|||6~~~~~~~~~~5 *|* 6||
 F,4 C,4 | G,4 D,4 | A,4 G,4 | F,4 C,4 | B,,2 D,2 G,,2 A,,2 | D,8 ||[M:3/2] x12 | %82
w: ||5~~~~~~~~6 *|||||
[M:3/2] G,,4 C,4 B,,4 | _E,8 B,,4 | F,8- F,4 | B,,12 | B,4 G,4 F,4 | !courtesy!_E,8 F,4 | %88
w: ||4 3||||
 C,8- C,4 | F,4 D,4 C,4 | B,,8 C,4 | G,12 | C,4 A,,4 G,,4 | F,,8 z4 | z4 z4 A,,4 | E,12 | %96
w: 4 3|||4|* 6 *|||4|
 A,,8 F,,4 | C,8- C,4 | F,,8 D,,4 | A,,8- A,,4 | D,,4 B,,4 A,,4 | G,,4 G,,4 z4 | z4 z4 G,,4 | %103
w: |4 3||4 *|* 6 *|||
 D,8- D,4 | G,,4 G,2 G,2 D,4 | G,,4 G,,2 G,,2 D,4 | G,,4 G,,4 D,4- | D,4 G,,8 | G,,4 C,4 B,,4 | %109
w: 4 *|||* * 4|||
 _E,8 B,,4 | F,8- F,4 | B,,12 | B,4 G,4 F,4 | _E,8 F,4 | C,8- C,4 | F,4 D,4 C,4 | B,,8 C,4 | %117
w: |4 3||||4 3|||
 G,8- G,4 | C,4 A,,4 G,,4 | F,,8 z4 | z4 z4 A,,4 | E,8- E,4 | A,,8 F,,4 | C,8- C,4 | F,,8 D,,4 | %125
w: 4 *|* 6 *|||4 3||4 3||
 A,,8- A,,4 | D,,4 B,,4 A,,4 | G,,8 z4 | z4 z4 G,,4 | D,8- D,4 | G,,4 G,2 G,2 D,4 | %131
w: 4 *|* 6 *|||4 *||
 G,,4 G,,2 G,,2 D,4 ||[M:2/2] G,,4 G,,4 | D,4- D,4 | G,,16 |] %135
w: ||4 *||

